X: 315
T:Terry Teehan's
% Nottingham Music Database
S:Trad, arr Phil Rowe
M:6/8
K:D
"Em"e3 B2A|GFE B2E|"D"FED A2A|d2D A2D|"Em"e3 B2A|GFE B2E|"D"FED F2A|"Em"F2E E3\
:|
"Em"B2e ede|"D"f2a afa|"Bm"baf a2f|"D"e2d B2A|"Em"B2e ede|
"D"f2a afa|"Bm"baf a2f|"Em"e3 e2d|"Em"B2e ede|"D"f2a afa|"Bm"baf a2f|
"D"e2d B2A|"D"faf f2e|"Bm"ded B2A|"D"FED F2A|"Em"F2E E3||


